X: 19435
T: Jackson's
R: jig
M: 6/8
K: Gmajor
|:G2e dBG|B2B dBA|G2e dBG|A2A BGE|
G2e dBG|B2B deg|gae dBG|A2A BGE:|
|:gag fgf|efe dBG|gag fed|eaa agf|
gag fgf|efe dBG|GAB dBG|A2A BGE:|

